X: 38081
T: The Britches Maker
O:Gow Collection
R:jig
B:RSCDS 38-8
Z:1997 by John Chambers <jc:trillian.mit.edu>
M:6/8
L:1/8
K:Gm
A \
| "Gm"B{c}dB "D7"A{B}cA | "Gm"BGG G2"F7"A |\
"Bb"B>cd/e/ fdB | "F7"AFF F2"D7"A \
| "Gm"B{c}dB "D7"A{B}cA | "Gm"GBg "F7"f2e |\
"Bb"d>cB "D7"A>Bc | "Gm"dBG G2"F7"A |
| "Bb"B>cd/e/ fdB | fdB fdB |\
"Cm"c>de/f/ gec | gec "F7"gec \
| "Bb"B>cd/e/ fga | "Eb"b>ag "Bb"fed |\
"Cm"cBA "D7"d2A | "Gm"BGG G2 :|
"F7"A \
| "Bb"B>cd/e/ fdB | fdB fdB |\
"Cm"c>de/f/ gec | gec "F7"gec \
| "Bb"B>cd/e/ "F7"fga | "Gm"b>ag "Dm"fed |\
"Cm"cBA "D7"d2A | "Gm"BGG G2 |]
%%center Book38/BritchesMaker-JC.abc

%%sep 1 1 500
%%sep 1 1 500

